X:367
T:Johnny Cope #3
C:Joe Buchanan's Scottish Tome - Page 213.2
I:213 2
Z:Carl Allison
R:March
L:1/8
M:4/4
K:G
B,2 | "Em"E2 EF EFGA | B2 E2 F2 "D"EF | D2 DE DEFG | "D"A2 d2 F2 "D7"ED  | 
"G"G2 FA A2 "Am"GA | "G"B2 d2 F2 "Am"ED | "G"B,2 d2 "B7"BAGF | "Em"E4 E2 :|
F2 | "G"G2 > A2 B2 D2 | GABc d2 "Am"AG | "D7"F2 D2 B2 D2 | FGAB A2 GF |
"Em"G2 FG A2 "B7"GA | "D"B2 d2 F2 "D7"ED | "G"B,2 d2 "B7"BAGF | "Em"E4 F2 :|

